X:1
T:Why Not Now?
T:Why Not Now?
T:Charles Clinton Case
T:Daniel Webster Whittle, 1891
T:Public Domain Courtesy of the Cyber Hymnal™
C:Charles Clinton Case
Z:Public Domain
Z:Courtesy of the Cyber Hymnal™
%%score ( 1 2 ) ( 3 4 )
L:1/8
Q:1/4=110
M:9/8
K:D
V:1 treble 
V:2 treble 
V:3 bass 
V:4 bass 
V:1
 [FA]2 [Fd] | [Gc]3 [CE]3 [Ec]2 [GB] | ([FA]3 [DF]3) [DB]2 [DA] | [CG]3 [CE]3 [FA]2 [EG] | %4
w: 1.~While we|pray and while we|plead, * While you|see your soul’s deep|
w: 2.~You have|wan- dered far a-|way; * Do not|risk a- no- ther|
w: 3.~In the|world you’ve failed to|find * Aught of|peace for trou- bled|
w: 4.~Come to|Christ, con- fes- sion|make; * Come to|Christ, and par- don|
 [DF]6 [FA]2 [Fd] | [Gc]3 [CE]3 [Ec]2 [GB] | ([FA]3 [DF]3) [GB]2 [FA] | [EG]2 [DF] [EG]3 [CE]3 | %8
w: need, While our|Fa- ther calls you|home, * Will you|not, my bro- ther,|
w: day; Do not|turn from God your|face, * But to-|day ac- cept His|
w: mind; Come to|Christ, on Him be-|lieve, * Peace and|joy you shall re-|
w: take; Trust in|Him from day to|day, * He will|keep you all the|
 D6 ||"^Refrain" [Fd]2 [Ac] | [GB]6 [Ac]2 [GB] | [FA]6 [GB]2 [FA] | [EG]2 [DF] [EG]3 [FA]3 | %13
w: come?|||||
w: grace.|Why not|now? Why not|now? Why not|come to Je- sus|
w: ceive.|||||
w: way.|||||
 [DF]6 [Fd]2 [Ac] | [GB]6 [Ac]2 [GB] | [FA]6 [GB]2 [FA] | [EG]2 [DF] [EG]3 [CE]3 | [A,D]6 |] %18
w: |||||
w: now? Why not|now? Why not|now? Why not|come to Je- sus|now?|
w: |||||
w: |||||
V:2
 x3 | x9 | x9 | x9 | x9 | x9 | x9 | x9 | D6 || x3 | x9 | x9 | x9 | x9 | x9 | x9 | x9 | x6 |] %18
V:3
 [D,A,]2 [D,A,] | [A,,A,]3 [A,,A,]3 [A,,A,]2 [A,,A,] | [D,A,]6 G,2 [F,A,] | %3
w: ~ ~|~ ~ ~ ~|~ ~ ~|
 [E,A,]3 [A,,A,]3 [A,,A,]2 [A,,A,] | [D,A,]6 [D,A,]2 [D,A,] | [A,,A,]3 [A,,A,]3 [A,,A,]2 [A,,A,] | %6
w: ~ ~ ~ ~|~ ~ ~|~ ~ ~ ~|
 [D,A,]6 [D,A,]2 [D,A,] | [A,,A,]2 [A,,A,] [A,,A,]3 [A,,G,]3 | [D,F,]6 || z3 | %10
w: ~ ~ ~|~ ~ ~ ~|~||
 [G,D]2 [G,D] [G,D]3 z3 | [D,D]2 [D,D] [D,D]3 [D,D]2 [D,A,] | [A,,A,]2 [A,,A,] [A,,A,]3 [A,,A,]3 | %13
w: Why not now?|Why not now? ~ ~|~ ~ ~ ~|
 [D,A,]6 z3 | [G,D]2 [G,D] [G,D]3 z3 | [D,D]2 [D,D] [D,D]3 [D,D]2 [D,A,] | %16
w: ~|Why not now?|Why not now? * *|
 [A,,A,]2 [A,,A,] [A,,A,]3 [A,,G,]3 | [D,F,]6 |] %18
w: ||
V:4
 x3 | x9 | x6 G,2 x | x9 | x9 | x9 | x9 | x9 | x6 || x3 | x9 | x9 | x9 | x9 | x9 | x9 | x9 | x6 |] %18

